!!!COM: Bach, Johann Sebastian
!!!OPR: Inventio
!!!OTL: Inventio 11
!!!XEN: Two-part Inventions [for keyboard]
!!!ONM: No. 11
!!!ONB: In G minor.
!!!SCT: BWV 782
!!!YEC: Copyright 1994, David Huron
!!!YEM: Rights to all derivative electronic formats reserved.
!! Performance duration: 1:02; performance tempo: 89.0 quarter-notes per minute.
!! (Andras Schiff, piano, "Two-Part Inventions BWV 772a-786; Three-part
!! Inventions BWV 787-801" Decca 411 974-2)
**kern	**kern
*staff2	*staff1
*clefF4	*clefG2
*k[b-e-]	*k[b-e-]
*g:	*g:
*M4/4	*M4/4
*MM89.0	*MM89.0
=1-	=1-
4GG	16r
.	16d
.	16en
.	16f#
8r	16g
.	16a
8G	16b-
.	16g
16F#	16a
16G	16g
16A	16f#
16G	16e
8F#	16d
.	16cc
8Fn	16b-
.	16a
=2	=2
16En	16g
16F	16f
16G	16en
16F	16d
8E	16c
.	16b-
8E-	16a
.	16g
8D	16dd
.	16cc
4GW	16b-
.	16dd
.	16cc
.	16b-
8F#	16a
.	16cc
=3	=3
16G	16b-
16D	16a
16En	16g
16F#	16a
16G	16b-
16A	16cc
16B-	16dd
16G	16een
16A	8ff
16G	.
16Fn	8dd
16E	.
16D	8r
16c	.
16B-	8dd
16A	.
=4	=4
16G	16ee-
16F	16dd
16E-	16cc
16D	16dd
16C	8ee-
16B-	.
16A	8een
16G	.
16d	16ff
16c	16ee
16B-	16dd
16d	16ee
16c	8ff
16B-	.
16A	8ff#
16c	.
=5	=5
16B-	8gg
16A	.
16G	16dd
16A	16cc
16B-	16dd
16c	16ee-
16d	16ff
16B-	16dd
8c	16ee-
.	16dd
8E-	16cc
.	16b-
8FW	16a
.	16gg
8FF	16ff
.	16ee-
=6	=6
8BB-	16dd
.	16cc
8B-	16dd
.	16een
8A	16ff
.	16gg
8d	16aa
.	16ff
8B-	16gg
.	16ff
8G	16ee
.	16dd
8AW	16cc#
.	16bb-
8AA	16aa
.	16gg
=7	=7
16DD	[4ffM
16AA	.
16BBn	.
16C#	.
16D	16ff]
16En	16gg
16F	16aa
16D	16bb-
16E	16cc#
16D	16dd
16C#	16een
16BB	16dd
16AA	8cc#
16G	.
16F	8ccn
16E	.
=8	=8
16D	16bn
16C	16cc
16BBn	16dd
16AA	16cc
16GG	8b
16F	.
16En	8b-
16D	.
16A	8a
16G	.
16F	4ddW
16A	.
16G	.
16F	.
16E	8cc#M
16G	.
=9	=9
16F	8a
16En	.
16D	4ffW
16F	.
16E	.
16D	.
16C#	8eenM
16E	.
16D	8a
16E	.
16F	4aa
16D	.
16G	.
16A	.
16B-	[8gg
16G	.
=10	=10
16c#	8gg]
16A	.
16Bn	16ffM
16c#	16een
16d	16ff
16F	16dd
16G	16ee
16A	16cc#
16B-	8.ddWS
16En	.
16F	.
16G	16ee
8A	8.eeO
8AA	.
.	16dd
=11	=11
4D	8dd
.	16cc
.	16b-
16r	16a
16D	16b-
16En	16cc
16F	16a
16G	16b-
16A	16a
16B-	16g
16G	16f
8cW	16en
.	16dd
8C	16cc
.	16b-
=12	=12
8F	16a
.	16g
16E-	16a
16D	16bn
16E-	[4ccW
16F	.
16G	.
16E-	.
16F	16cc]
16E-	16a
16D	16b-
16C	16cc
16BBn	[4ddW
16A-	.
16G	.
16F	.
=13	=13
16E-	16dd]
16D	16g
16C	16a
16D	16bn
16E-	16cc
16F	16dd
16G	16ee-
16A-	16cc
8BBn	16dd
.	16cc
8GG	16b
.	16a
8r	16g
.	16ff
8GG	16ee-
.	16dd
=14	=14
16AA-	16cc
16GG	16b-
16FF	16a-
16GG	16g
8AA-	16f
.	16ee-
8AAn	16dd
.	16cc
16BB-	16gg
16AA	16ff
16GG	16ee-
16AA	16gg
8BB-	16ff
.	16ee-
8BBn	16dd
.	16ff
=15	=15
16C	16ee-
16GG	16dd
16AA	16cc
16BBn	16dd
16C	16ee-
16D	16ff
16E-	16gg
16C	16aa-
16D	8bn
16C	.
16BB	8dd
16AA	.
16GG	8r
16F	.
16E-	8f
16D	.
=16	=16
16C	8e-
16BB-	.
16AA-	8cc
16GG	.
16FF	8d
16EE-	.
16FF	8bnS
16GG	.
16CC	16cc
16D	16g
16E-	16cc
16F	16dd
16G	[4ee-W
16A-	.
16B-	.
16G	.
=17	=17
16A-	16ee-]
16G	16cc
16F	16dd
16E-	16ee-
16D	[4ffW
16c	.
16B-	.
16A-	.
16G	8ff]
16F	.
16G	16ee-M
16An	16dd
16B-	8.ggW
16c	.
16d	.
16B-	16ff
=18	=18
16c	16ee-
16B-	16dd
16A	16cc
16G	16b-
16F#	16a
16e-	16g
16d	16f#
16c	16a
[4B-	16e-
.	16d
.	16en
.	16f#
16B-]	16g
16c	16a
16d	16b-
16e-	16g
=19	=19
16F#	16a
16G	16g
16A	16f#
16G	16en
8F#	16d
.	16cc
8Fn	16b-
.	16a
16En	16g
16F	16fn
16G	16e-
16F	16d
8E	16c
.	16b-
8E-	16a
.	16g
=20	=20
8D	16dd
.	16cc
4GW	16b-
.	16dd
.	16cc
.	16b-
8F#	16a
.	16cc
8D	16b-
.	16a
4B-W	16g
.	16b-
.	16a
.	16g
8A	16f#
.	16a
=21	=21
8D	16g
.	16a
4d	16b-
.	16cc
.	16dd
.	16een
[8c	16ff#
.	16gg
16c]	16aa
16e-	16ff#
16d	16gg
16c	16aa
16B-	[4dd
16A	.
16G	.
16B-	.
=22	=22
[4E-	16dd]
.	16cc
.	16ee-
.	16dd
16E-]	16cc
16D	16b-
16C	16a
16E-	16cc
8AA	16f#
.	16a
[8DW	16b-
.	16a
8D]	16g
.	16fn
8C	16e-
.	16g
=23	=23
8BB-	16c#
.	16g
16AA	16a
16GG	16b-
8DW	16d
.	16a
8DD	16gM
.	16f#
2GG;	2gW;
==|!	==|!
*-	*-
!!!CDT: 1685/3//-1750/7/28
!!!OCY: Deutschland
!!!AGN: polyphony
!!!AST: baroque
!!!AMT: simple quadruple
!!!SCA: Bach-Werke-Verzeichnis
!!!YOR: Bach Gesellschaft
!!!AIN: cemb; clavi
!!!EEV: 1.0
!!!RDT: 1986 November
!!!YER: 1995 May 22
!!!YEN: Canada
!!!EFL: 11/15
!!!EED: David Huron
